X: 1
M: 2/4
K: C
Q: 1/4=60
L: 1/8
EEGG|F2D2|CDEF|D4|
w: Cai a ne-ve bran-ca so-bre~a na-tu-reza 
FFEE|A2G2|GFED|C4|
w: E na ter-ra~in-tei-ra há paz e be-leza
</abc>
<abc>
